file/crocs.svg

<svg clip-rule="evenodd" fill-rule="evenodd" stroke-linejoin="round" stroke-miterlimit="1.41421" viewBox="0 0 560 400" xmlns="http://www.w3.org/2000/svg"><path d="m283.088 12.476c-9.116 1.138-16.582 4.518-22.478 10.174-8.732 8.363-12.401 20.828-9.869 33.532 1.57 7.883 5.687 14.9 11.711 19.931 2.804 2.339 6.761 4.646 10.302 6.024 5.415 2.099 12.112 3.092 18.264 2.676 8.396-.545 14.163-2.532 20.027-6.873 1.955-1.442 6.072-5.512 6.889-6.794 1.666-2.659 2.051-5.831 1.042-8.715-1.442-4.102-5.608-6.857-9.934-6.553-2.851.192-4.277.897-7.033 3.525-4.166 3.957-6.937 5.511-10.959 6.12-3.236.497-7.113.048-9.789-1.138-4.341-1.922-7.354-6.168-8.363-11.775-.336-1.875-.384-6.104-.08-7.931 1.057-6.472 4.967-11.071 10.654-12.561 6.697-1.762 13.538.593 17.72 6.089 1.266 1.65 2.355 2.595 3.909 3.348 2.964 1.474 6.04 1.474 8.988.016 3.477-1.73 5.543-5.031 5.576-8.908.016-2.659-.737-4.662-2.564-6.905-5.383-6.585-11.055-10.43-18.12-12.256-3.268-.85-5.592-1.122-10.045-1.186-2.852-.048-4.535 0-5.848.16zm72.416-.128c-5.126.481-8.603 1.346-11.952 2.948-5.944 2.836-9.468 7.194-10.974 13.602-.417 1.746-.593 6.777-.321 8.86 1.058 7.979 5.896 13.682 14.436 17.063 2.034.801 4.71 1.586 9.212 2.675 9.629 2.323 10.862 2.772 11.615 4.246.433.833.433 2.355.016 3.172-.897 1.746-2.835 2.403-7.578 2.548-6.617.208-10.75-1.09-16.598-5.255-2.195-1.571-3.188-2.019-5.079-2.259-3.925-.529-7.882 2.002-9.26 5.927-.481 1.378-.481 4.07.016 5.512.353.993 1.218 2.483 1.907 3.252 1.153 1.298 4.966 4.07 7.498 5.447 7.257 3.958 17.335 5.576 27.717 4.47 11.327-1.217 18.52-6.136 21.116-14.403.817-2.611 1.233-5.399 1.233-8.363 0-5.752-1.794-10.206-5.575-13.859-4.021-3.877-9.244-6.232-18.184-8.234-8.075-1.795-9.789-2.292-11.295-3.253-1.298-.849-1.699-1.602-1.715-3.156 0-.961.064-1.218.449-1.794.785-1.202 2.163-1.811 4.758-2.131 5.255-.641 10.831 1.169 15.701 5.095 2.051 1.65 3.701 2.291 5.928 2.291 2.868 0 5.303-1.266 6.985-3.621 1.843-2.58 2.099-5.736.721-8.636-.689-1.458-1.762-2.707-3.861-4.486-5.191-4.406-11.263-6.825-19.049-7.61-1.506-.144-6.521-.192-7.867-.048zm-160.053.064c-16.39 1.698-29.175 12.208-32.924 27.044-1.282 5.095-1.474 10.767-.561 15.845 2.243 12.273 10.318 21.966 22.254 26.708 9.821 3.893 22.013 3.829 31.722-.176 11.712-4.839 19.61-14.58 21.709-26.74.881-5.047.641-10.734-.641-15.845-1.089-4.31-3.252-8.796-6.008-12.465-1.378-1.842-5.03-5.447-6.953-6.873-5.704-4.23-12.433-6.745-20.091-7.514-1.938-.192-6.553-.176-8.507.016zm-142.831-.08c-.256.032-1.169.144-2.002.24-11.087 1.266-20.972 7.098-26.724 15.765-5.143 7.739-7.017 17.528-5.239 27.237 2.9 15.749 15.316 26.964 32.139 29.014 2.547.321 7.882.353 10.462.08 7.61-.817 13.41-3.124 18.777-7.481 1.634-1.33 4.037-3.653 5.239-5.111 4.005-4.807 2.595-12.145-2.9-15.028-2.996-1.586-6.072-1.602-9.164-.096-1.122.56-1.666.977-3.285 2.547-3.332 3.236-5.912 4.854-9.148 5.72-1.426.384-1.874.416-4.47.432-3.444.016-4.806-.272-7.37-1.506-3.46-1.682-5.879-4.534-7.193-8.491-.833-2.484-1.106-4.31-1.106-7.21 0-3.573.577-6.328 1.843-8.892 2.611-5.255 7.338-8.01 13.666-7.978 5.287.032 9.997 2.483 13.362 6.953 3.765 5.015 10.862 5.543 15.236 1.121 2.115-2.114 2.964-4.213 2.948-7.225-.032-3.397-.993-5.239-5.047-9.517-4.726-4.983-10.269-8.219-16.534-9.613-3.252-.737-4.934-.913-9.084-.977-2.163-.032-4.133-.016-4.406.016zm56.588 1.025c-3.941.625-7.002 2.9-8.7 6.473-1.089 2.291-1.041.673-.993 29.624l.048 26.146.481 1.362c1.201 3.445 4.005 6.104 7.61 7.242 1.522.464 4.309.513 5.928.08 3.108-.817 5.912-3.124 7.289-5.96 1.106-2.291 1.09-2.019 1.202-12.817.096-9.068.128-9.901.449-11.68.432-2.291.721-3.428 1.265-4.95 2.243-6.233 6.665-10.366 12.433-11.584 1.602-.336 3.012-.272 5.255.209 2.756.576 5.655.608 7.274.08 1.714-.577 3.22-1.538 4.646-2.98 2.179-2.211 3.188-4.679 3.188-7.787-.016-2.034-.304-3.284-1.186-5.046-1.233-2.468-2.755-3.926-5.527-5.303-2.756-1.362-3.717-1.571-7.45-1.571-3.573 0-5.287.241-8.043 1.122-4.037 1.298-8.09 3.685-11.215 6.601-.576.544-1.089.993-1.153.993-.048 0-.096-.224-.096-.497 0-1.442-1.266-4.309-2.596-5.879-1.458-1.715-3.605-3.061-5.767-3.621-1.218-.305-3.205-.433-4.342-.257zm94.173 18.185c6.265 1.201 10.575 5.895 11.84 12.913.753 4.197.289 9.148-1.201 12.673-1.57 3.685-4.358 6.52-7.787 7.93-2.051.833-3.476 1.074-6.376 1.074-2.339 0-2.932-.048-4.166-.369-6.184-1.602-10.157-6.2-11.391-13.201-.353-1.971-.353-5.784 0-7.787 1.41-7.85 6.216-12.609 13.634-13.474 1.378-.16 3.941-.048 5.447.241zm207.834-9.599v3.815c0 .602-.138 1.054-.414 1.356-.276.301-.641.451-1.094.451-.438 0-.794-.15-1.066-.451-.273-.302-.409-.754-.409-1.356v-4.572c0-.722-.025-1.282-.074-1.682-.05-.399-.184-.727-.404-.982-.219-.256-.566-.384-1.04-.384-.948 0-1.573.322-1.874.967-.3.644-.451 1.569-.451 2.775v3.878c0 .595-.136 1.046-.408 1.35-.273.305-.632.457-1.078.457-.439 0-.798-.152-1.077-.457-.28-.304-.42-.755-.42-1.35v-8.209c0-.539.126-.949.377-1.229.251-.281.582-.421.993-.421.396 0 .727.132.992.394.266.263.398.626.398 1.088v.273c.503-.595 1.041-1.033 1.614-1.313.573-.281 1.21-.421 1.91-.421.729 0 1.356.144 1.879.431.524.287.956.722 1.295 1.303.489-.588 1.012-1.024 1.571-1.308s1.179-.426 1.858-.426c.793 0 1.476.154 2.049.463.573.308 1.001.749 1.284 1.324.248.519.372 1.335.372 2.449v5.602c0 .602-.138 1.054-.414 1.356-.276.301-.641.451-1.094.451-.438 0-.798-.152-1.077-.457-.28-.304-.419-.755-.419-1.35v-4.824c0-.617-.027-1.111-.08-1.482-.053-.372-.196-.683-.43-.936-.233-.252-.587-.378-1.061-.378-.383 0-.745.112-1.088.336-.344.224-.611.526-.802.904-.212.484-.318 1.338-.318 2.565zm-13.948-3.721v5.276c-.001.449.015.794.047 1.035.032.242.117.438.255.589s.363.226.674.226c.17 0 .4-.03.69-.089.29-.06.517-.09.679-.09.234 0 .444.093.632.279.188.185.281.415.281.688 0 .463-.254.816-.764 1.062-.509.245-1.242.367-2.197.367-.906 0-1.593-.15-2.06-.451-.467-.302-.773-.719-.918-1.251-.145-.533-.217-1.244-.217-2.134v-5.507h-.383c-.417 0-.736-.098-.955-.294s-.329-.445-.329-.747c0-.301.115-.548.345-.74.23-.193.564-.289 1.003-.29h.319v-1.723c0-.463.012-.825.037-1.088s.094-.489.207-.678c.113-.196.276-.355.488-.478s.449-.184.711-.184c.368 0 .701.137.998.41.198.182.324.405.377.667.053.263.079.636.08 1.12v1.954h1.061c.411.001.724.097.939.29.216.192.324.439.324.74 0 .386-.154.656-.462.81-.307.154-.748.231-1.321.231z" fill="#75b709" fill-rule="nonzero" transform="matrix(1.23447 0 0 1.23447 10.8877 140.186)"/></svg>

<?xml version="1.0" encoding="UTF-8" standalone="no"?>
<!DOCTYPE svg PUBLIC "-//W3C//DTD SVG 1.1//EN" "http://www.w3.org/Graphics/SVG/1.1/DTD/svg11.dtd">
<svg width="100%" height="100%" viewBox="0 0 560 400" version="1.1" xmlns="http://www.w3.org/2000/svg" xmlns:xlink="http://www.w3.org/1999/xlink" xml:space="preserve" xmlns:serif="http://www.serif.com/" style="fill-rule:evenodd;clip-rule:evenodd;stroke-linejoin:round;stroke-miterlimit:1.41421;">
    <g id="path10" transform="matrix(1.23447,0,0,1.23447,10.8877,140.186)">
        <path d="M283.088,12.476C273.972,13.614 266.506,16.994 260.61,22.65C251.878,31.013 248.209,43.478 250.741,56.182C252.311,64.065 256.428,71.082 262.452,76.113C265.256,78.452 269.213,80.759 272.754,82.137C278.169,84.236 284.866,85.229 291.018,84.813C299.414,84.268 305.181,82.281 311.045,77.94C313,76.498 317.117,72.428 317.934,71.146C319.6,68.487 319.985,65.315 318.976,62.431C317.534,58.329 313.368,55.574 309.042,55.878C306.191,56.07 304.765,56.775 302.009,59.403C297.843,63.36 295.072,64.914 291.05,65.523C287.814,66.02 283.937,65.571 281.261,64.385C276.92,62.463 273.907,58.217 272.898,52.61C272.562,50.735 272.514,46.506 272.818,44.679C273.875,38.207 277.785,33.608 283.472,32.118C290.169,30.356 297.01,32.711 301.192,38.207C302.458,39.857 303.547,40.802 305.101,41.555C308.065,43.029 311.141,43.029 314.089,41.571C317.566,39.841 319.632,36.54 319.665,32.663C319.681,30.004 318.928,28.001 317.101,25.758C311.718,19.173 306.046,15.328 298.981,13.502C295.713,12.652 293.389,12.38 288.936,12.316C286.084,12.268 284.401,12.316 283.088,12.476ZM355.504,12.348C350.378,12.829 346.901,13.694 343.552,15.296C337.608,18.132 334.084,22.49 332.578,28.898C332.161,30.644 331.985,35.675 332.257,37.758C333.315,45.737 338.153,51.44 346.693,54.821C348.727,55.622 351.403,56.407 355.905,57.496C365.534,59.819 366.767,60.268 367.52,61.742C367.953,62.575 367.953,64.097 367.536,64.914C366.639,66.66 364.701,67.317 359.958,67.462C353.341,67.67 349.208,66.372 343.36,62.207C341.165,60.636 340.172,60.188 338.281,59.948C334.356,59.419 330.399,61.95 329.021,65.875C328.54,67.253 328.54,69.945 329.037,71.387C329.39,72.38 330.255,73.87 330.944,74.639C332.097,75.937 335.91,78.709 338.442,80.086C345.699,84.044 355.777,85.662 366.159,84.556C377.486,83.339 384.679,78.42 387.275,70.153C388.092,67.542 388.508,64.754 388.508,61.79C388.508,56.038 386.714,51.584 382.933,47.931C378.912,44.054 373.689,41.699 364.749,39.697C356.674,37.902 354.96,37.405 353.454,36.444C352.156,35.595 351.755,34.842 351.739,33.288C351.739,32.327 351.803,32.07 352.188,31.494C352.973,30.292 354.351,29.683 356.946,29.363C362.201,28.722 367.777,30.532 372.647,34.458C374.698,36.108 376.348,36.749 378.575,36.749C381.443,36.749 383.878,35.483 385.56,33.128C387.403,30.548 387.659,27.392 386.281,24.492C385.592,23.034 384.519,21.785 382.42,20.006C377.229,15.6 371.157,13.181 363.371,12.396C361.865,12.252 356.85,12.204 355.504,12.348ZM195.451,12.412C179.061,14.11 166.276,24.62 162.527,39.456C161.245,44.551 161.053,50.223 161.966,55.301C164.209,67.574 172.284,77.267 184.22,82.009C194.041,85.902 206.233,85.838 215.942,81.833C227.654,76.994 235.552,67.253 237.651,55.093C238.532,50.046 238.292,44.359 237.01,39.248C235.921,34.938 233.758,30.452 231.002,26.783C229.624,24.941 225.972,21.336 224.049,19.91C218.345,15.68 211.616,13.165 203.958,12.396C202.02,12.204 197.405,12.22 195.451,12.412ZM52.62,12.332C52.364,12.364 51.451,12.476 50.618,12.572C39.531,13.838 29.646,19.67 23.894,28.337C18.751,36.076 16.877,45.865 18.655,55.574C21.555,71.323 33.971,82.538 50.794,84.588C53.341,84.909 58.676,84.941 61.256,84.668C68.866,83.851 74.666,81.544 80.033,77.187C81.667,75.857 84.07,73.534 85.272,72.076C89.277,67.269 87.867,59.931 82.372,57.048C79.376,55.462 76.3,55.446 73.208,56.952C72.086,57.512 71.542,57.929 69.923,59.499C66.591,62.735 64.011,64.353 60.775,65.219C59.349,65.603 58.901,65.635 56.305,65.651C52.861,65.667 51.499,65.379 48.935,64.145C45.475,62.463 43.056,59.611 41.742,55.654C40.909,53.17 40.636,51.344 40.636,48.444C40.636,44.871 41.213,42.116 42.479,39.552C45.09,34.297 49.817,31.542 56.145,31.574C61.432,31.606 66.142,34.057 69.507,38.527C73.272,43.542 80.369,44.07 84.743,39.648C86.858,37.534 87.707,35.435 87.691,32.423C87.659,29.026 86.698,27.184 82.644,22.906C77.918,17.923 72.375,14.687 66.11,13.293C62.858,12.556 61.176,12.38 57.026,12.316C54.863,12.284 52.893,12.3 52.62,12.332ZM109.208,13.357C105.267,13.982 102.206,16.257 100.508,19.83C99.419,22.121 99.467,20.503 99.515,49.454L99.563,75.6L100.044,76.962C101.245,80.407 104.049,83.066 107.654,84.204C109.176,84.668 111.963,84.717 113.582,84.284C116.69,83.467 119.494,81.16 120.871,78.324C121.977,76.033 121.961,76.305 122.073,65.507C122.169,56.439 122.201,55.606 122.522,53.827C122.954,51.536 123.243,50.399 123.787,48.877C126.03,42.644 130.452,38.511 136.22,37.293C137.822,36.957 139.232,37.021 141.475,37.502C144.231,38.078 147.13,38.11 148.749,37.582C150.463,37.005 151.969,36.044 153.395,34.602C155.574,32.391 156.583,29.923 156.583,26.815C156.567,24.781 156.279,23.531 155.397,21.769C154.164,19.301 152.642,17.843 149.87,16.466C147.114,15.104 146.153,14.895 142.42,14.895C138.847,14.895 137.133,15.136 134.377,16.017C130.34,17.315 126.287,19.702 123.162,22.618C122.586,23.162 122.073,23.611 122.009,23.611C121.961,23.611 121.913,23.387 121.913,23.114C121.913,21.672 120.647,18.805 119.317,17.235C117.859,15.52 115.712,14.174 113.55,13.614C112.332,13.309 110.345,13.181 109.208,13.357ZM203.381,31.542C209.646,32.743 213.956,37.437 215.221,44.455C215.974,48.652 215.51,53.603 214.02,57.128C212.45,60.813 209.662,63.648 206.233,65.058C204.182,65.891 202.757,66.132 199.857,66.132C197.518,66.132 196.925,66.084 195.691,65.763C189.507,64.161 185.534,59.563 184.3,52.562C183.947,50.591 183.947,46.778 184.3,44.775C185.71,36.925 190.516,32.166 197.934,31.301C199.312,31.141 201.875,31.253 203.381,31.542ZM411.215,21.943L411.215,25.758C411.215,26.36 411.077,26.812 410.801,27.114C410.525,27.415 410.16,27.565 409.707,27.565C409.269,27.565 408.913,27.415 408.641,27.114C408.368,26.812 408.232,26.36 408.232,25.758L408.232,21.186C408.232,20.464 408.207,19.904 408.158,19.504C408.108,19.105 407.974,18.777 407.754,18.522C407.535,18.266 407.188,18.138 406.714,18.138C405.766,18.138 405.141,18.46 404.84,19.105C404.54,19.749 404.389,20.674 404.389,21.88L404.389,25.758C404.389,26.353 404.253,26.804 403.981,27.108C403.708,27.413 403.349,27.565 402.903,27.565C402.464,27.565 402.105,27.413 401.826,27.108C401.546,26.804 401.406,26.353 401.406,25.758L401.406,17.549C401.406,17.01 401.532,16.6 401.783,16.32C402.034,16.039 402.365,15.899 402.776,15.899C403.172,15.899 403.503,16.031 403.768,16.293C404.034,16.556 404.166,16.919 404.166,17.381L404.166,17.654C404.669,17.059 405.207,16.621 405.78,16.341C406.353,16.06 406.99,15.92 407.69,15.92C408.419,15.92 409.046,16.064 409.569,16.351C410.093,16.638 410.525,17.073 410.864,17.654C411.353,17.066 411.876,16.63 412.435,16.346C412.994,16.062 413.614,15.92 414.293,15.92C415.086,15.92 415.769,16.074 416.342,16.383C416.915,16.691 417.343,17.132 417.626,17.707C417.874,18.226 417.998,19.042 417.998,20.156L417.998,25.758C417.998,26.36 417.86,26.812 417.584,27.114C417.308,27.415 416.943,27.565 416.49,27.565C416.052,27.565 415.692,27.413 415.413,27.108C415.133,26.804 414.994,26.353 414.994,25.758L414.994,20.934C414.994,20.317 414.967,19.823 414.914,19.452C414.861,19.08 414.718,18.769 414.484,18.516C414.251,18.264 413.897,18.138 413.423,18.138C413.04,18.138 412.678,18.25 412.335,18.474C411.991,18.698 411.724,19 411.533,19.378C411.321,19.862 411.215,20.716 411.215,21.943ZM397.267,18.222L397.267,23.498C397.266,23.947 397.282,24.292 397.314,24.533C397.346,24.775 397.431,24.971 397.569,25.122C397.707,25.273 397.932,25.348 398.243,25.348C398.413,25.348 398.643,25.318 398.933,25.259C399.223,25.199 399.45,25.169 399.612,25.169C399.846,25.169 400.056,25.262 400.244,25.448C400.432,25.633 400.525,25.863 400.525,26.136C400.525,26.599 400.271,26.952 399.761,27.198C399.252,27.443 398.519,27.565 397.564,27.565C396.658,27.565 395.971,27.415 395.504,27.114C395.037,26.812 394.731,26.395 394.586,25.863C394.441,25.33 394.369,24.619 394.369,23.729L394.369,18.222L393.986,18.222C393.569,18.222 393.25,18.124 393.031,17.928C392.812,17.732 392.702,17.483 392.702,17.181C392.702,16.88 392.817,16.633 393.047,16.441C393.277,16.248 393.611,16.152 394.05,16.151L394.369,16.151L394.369,14.428C394.369,13.965 394.381,13.603 394.406,13.34C394.431,13.077 394.5,12.851 394.613,12.662C394.726,12.466 394.889,12.307 395.101,12.184C395.313,12.061 395.55,12 395.812,12C396.18,12 396.513,12.137 396.81,12.41C397.008,12.592 397.134,12.815 397.187,13.077C397.24,13.34 397.266,13.713 397.267,14.197L397.267,16.151L398.328,16.151C398.739,16.152 399.052,16.248 399.267,16.441C399.483,16.633 399.591,16.88 399.591,17.181C399.591,17.567 399.437,17.837 399.129,17.991C398.822,18.145 398.381,18.222 397.808,18.222L397.267,18.222Z" style="fill:rgb(117,183,9);fill-rule:nonzero;"/>
    </g>
</svg>
